static/images/clients/logo-thedrum-cell.svg

<svg width="256" height="166" viewBox="0 0 256 166" fill="none" xmlns="http://www.w3.org/2000/svg">
<rect opacity="0.1" width="256" height="166" fill="#95BCD1"/>
<path d="M195.847 57H61V109H195.847V57Z" fill="#111111"/>
<path d="M183.644 89.6922L183.037 91.1618L182.453 89.6922H182.026V91.5914H182.295V89.9635L182.925 91.5914H183.104L183.734 89.9635V91.5914H184.026V89.6696L183.644 89.6922ZM180.205 89.6922V89.9409H180.835V91.5914H181.104V89.9183H181.711V89.6696L180.205 89.6922ZM173.935 79.1792C172.452 79.0888 171.036 79.7896 170.227 81.0557C169.62 79.8575 168.384 79.1566 166.676 79.1566C165.372 79.1566 163.821 79.8348 163.214 80.9201V79.5409H159.708V91.614H163.372V84.6731C163.327 84.1305 163.529 83.5879 163.911 83.1809C164.293 82.774 164.81 82.5705 165.35 82.5705C166.676 82.5705 167.282 83.4749 167.282 84.6053V91.5914H170.901V84.6279C170.878 84.0853 171.081 83.5427 171.463 83.1583C171.845 82.774 172.362 82.5479 172.901 82.5705C174.205 82.5705 174.811 83.4749 174.811 84.6053V91.5914H178.362V83.7688C178.385 80.5131 176.227 79.1792 173.935 79.1792ZM157.304 79.5635H153.64V86.414C153.685 86.9566 153.483 87.4992 153.101 87.9062C152.719 88.2905 152.179 88.5166 151.64 88.494C150.337 88.494 149.707 87.567 149.707 86.414V79.5635H146.044V87.1827C146.044 89.7601 147.685 91.9079 150.606 91.9079C151.82 91.9079 153.191 91.4783 153.843 90.4157C153.843 90.8227 153.887 91.2296 153.932 91.6366H157.461C157.371 90.9131 157.349 90.1896 157.349 89.4662L157.304 79.5635ZM140.111 81.1688V79.5409H136.56V91.5914H140.223V86.3236C140.223 83.927 141.549 83.0453 143.032 83.0453C143.414 83.0453 143.819 83.0905 144.178 83.1809V79.5409C143.864 79.4505 143.527 79.4279 143.19 79.4279C142.268 79.4279 140.74 79.8122 140.111 81.1688ZM130.559 83.0227C130.559 79.5635 128.401 78.0262 125.772 78.0262H123.547V87.9966H125.772C128.424 87.9966 130.559 86.4592 130.559 83.0227ZM134.559 83.0227C134.559 88.3357 131.098 91.614 125.952 91.614H119.749V74.3862H125.952C131.098 74.3862 134.559 77.687 134.559 83.0227ZM109.478 84.1305C109.433 83.2035 108.803 82.0957 107.05 82.0957C105.837 82.0279 104.803 82.9322 104.668 84.1305H109.478ZM113.029 85.374C113.029 85.7583 113.006 86.1427 112.961 86.5044H104.601C104.758 87.8835 105.949 88.9235 107.343 88.8331C108.421 88.9462 109.41 88.2905 109.747 87.2505L112.804 88.1322C112.22 90.2122 110.309 91.9757 107.275 91.9757C103.971 91.9757 101.027 89.6018 101.027 85.5322C101.027 81.6436 103.904 79.1566 107.028 79.1566C110.736 79.1792 113.029 81.4853 113.029 85.374ZM94.7793 79.2244C93.6556 79.1792 92.5543 79.5635 91.7003 80.3096V74.0244H88.0369V91.614H91.7003V84.5149C91.7003 83.9949 91.9026 83.4975 92.2846 83.1131C92.6667 82.7514 93.1611 82.5479 93.6781 82.5479C95.0041 82.5479 95.6334 83.4522 95.6334 84.6505V91.5914H99.2967V84.0175C99.3192 81.3722 97.9258 79.2244 94.7793 79.2244ZM72.2373 74.3862H86.5986V78.0488H81.317V91.614H77.4964V78.0488H72.2373V74.3862Z" fill="white"/>
</svg>

<svg xmlns="http://www.w3.org/2000/svg" fill="none" viewBox="0 0 256 166">
  <path fill="#95BCD1" d="M0 0h256v166H0z" opacity=".1"/>
  <path fill="#111" d="M195.85 57H61v52h134.85V57z"/>
  <path fill="#fff" d="M183.64 89.7l-.6 1.46-.59-1.47h-.42v1.9h.26v-1.63l.64 1.63h.17l.63-1.63v1.63h.3v-1.92l-.39.02zm-3.43 0v.24h.63v1.65h.26v-1.67h.61v-.25l-1.5.02zm-6.28-10.52a4.08 4.08 0 00-3.7 1.88c-.61-1.2-1.85-1.9-3.55-1.9-1.3 0-2.86.67-3.47 1.76v-1.38h-3.5v12.07h3.66v-6.94a1.96 1.96 0 011.98-2.1c1.33 0 1.93.9 1.93 2.04v6.98h3.62v-6.96a1.98 1.98 0 012-2.06c1.3 0 1.91.9 1.91 2.04v6.98h3.55v-7.82c.02-3.26-2.13-4.6-4.43-4.6zm-16.63.38h-3.66v6.85c.05.55-.16 1.09-.54 1.5-.38.38-.92.6-1.46.58-1.3 0-1.93-.92-1.93-2.08v-6.85h-3.67v7.62c0 2.58 1.65 4.73 4.57 4.73 1.21 0 2.58-.43 3.23-1.5 0 .41.05.82.1 1.23h3.52c-.09-.73-.11-1.45-.11-2.17l-.05-9.9zm-17.19 1.6v-1.62h-3.55V91.6h3.66v-5.27c0-2.4 1.33-3.27 2.81-3.27.38 0 .79.04 1.15.13v-3.64a3.58 3.58 0 00-.99-.11c-.92 0-2.45.38-3.08 1.74zm-9.55 1.86c0-3.46-2.16-5-4.79-5h-2.22V88h2.22c2.65 0 4.79-1.54 4.79-4.98zm4 0c0 5.32-3.46 8.6-8.6 8.6h-6.21V74.38h6.2c5.15 0 8.6 3.3 8.6 8.63zm-25.08 1.11c-.05-.93-.68-2.03-2.43-2.03a2.28 2.28 0 00-2.38 2.03h4.8zm3.55 1.24c0 .39-.02.77-.07 1.13h-8.36a2.6 2.6 0 002.74 2.33 2.27 2.27 0 002.4-1.58l3.06.88c-.58 2.08-2.5 3.85-5.52 3.85-3.3 0-6.25-2.38-6.25-6.45 0-3.89 2.87-6.37 6-6.37 3.7.02 6 2.33 6 6.21zm-18.25-6.15a4.4 4.4 0 00-3.08 1.09v-6.29h-3.66v17.6h3.66v-7.1a1.98 1.98 0 011.98-1.97c1.32 0 1.95.9 1.95 2.1v6.94h3.67v-7.57c.02-2.65-1.37-4.8-4.52-4.8zM72.24 74.4H86.6v3.66h-5.28V91.6H77.5V78.05h-5.26v-3.66z"/>
</svg>
